X:6
T:Pehr H\"orbergs julpolska
R:sl\"angpolska
C:Pehr H\"orberg (1746-1816), Risinge, \"Osterg\"otland
A:\"Osterg\"otland
Z:id:hn-sp-6
M:3/4
L:1/16
K:Dm
d2 |: ^c3d A2G2 F2E2 | D2FF D2FF A2F2 | D2F2 A2FD A2FD |
A3A B2A2 G2E2 | C2E2 G2EC G2EC | G3G A2G2 F2E2 | D2d2 ed^cd e2^c2 |
A2BA GFED AFED |1^CDE^C D6 d2 :|2^CDE^C D6 D2 ||
|: D2dd D2ee D2ff | f2ef gfed ^c2A2 | A,2DD A,2EE A,2FF |
F2EF GFED ^C2A,2 | D2DD E2EE F2FF | (3GAG FG A8 | D2dd D2ee D2ff |
f2ef gfed ^c2A2 | A,2DD A,2EE A,2FF | F2EF GFED ^C2A,2 |
D2DD E2EE F2FF | (3GAG FG A8 | F4 DFA,F DFA,F | E4 ^CEA,E ^CEA,E |
F4 DFA,F DFA,F | E4 ^CEA,E ^CEA,E | D3^F A2^c2 d2=F2 |
[1ED^CE D6 D2 :|2ED^CE D4 d2 || 
<end>
<start>
